src/assets/images/icons/icon-phone.svg

<svg width="25" height="25" viewBox="0 0 25 25" fill="none" xmlns="http://www.w3.org/2000/svg">
<path d="M5.02778 10.8194C7.02778 14.75 10.25 17.9722 14.1806 19.9722L17.2361 16.9167C17.625 16.5278 18.1667 16.4167 18.6528 16.5694C20.2083 17.0833 21.875 17.3611 23.6111 17.3611C23.9795 17.3611 24.3327 17.5074 24.5932 17.7679C24.8537 18.0284 25 18.3816 25 18.75V23.6111C25 23.9795 24.8537 24.3327 24.5932 24.5932C24.3327 24.8537 23.9795 25 23.6111 25C17.3491 25 11.3435 22.5124 6.91553 18.0845C2.48759 13.6565 0 7.65094 0 1.38889C0 1.02053 0.146329 0.667263 0.406796 0.406796C0.667263 0.146329 1.02053 0 1.38889 0H6.25C6.61836 0 6.97162 0.146329 7.23209 0.406796C7.49256 0.667263 7.63889 1.02053 7.63889 1.38889C7.63889 3.125 7.91667 4.79167 8.43055 6.34722C8.58333 6.83333 8.47222 7.375 8.08333 7.76389L5.02778 10.8194Z" fill="white"/>
</svg>

<svg xmlns="http://www.w3.org/2000/svg" width="25" height="25" fill="none"><path fill="#fff" d="M5.028 10.82c2 3.93 5.222 7.152 9.153 9.152l3.055-3.055c.389-.39.93-.5 1.417-.348 1.555.514 3.222.792 4.958.792A1.389 1.389 0 0 1 25 18.75v4.861A1.389 1.389 0 0 1 23.611 25 23.611 23.611 0 0 1 0 1.389 1.389 1.389 0 0 1 1.389 0H6.25a1.389 1.389 0 0 1 1.389 1.389c0 1.736.278 3.403.792 4.958a1.394 1.394 0 0 1-.348 1.417l-3.055 3.055Z"/></svg>
